tools/download-figma-icons/icons/solid/smiley-sad.svg

<svg width="24" height="24" viewBox="0 0 24 24" fill="none" xmlns="http://www.w3.org/2000/svg">
<path d="M12 0C5.385 0 0 5.385 0 12C0 18.615 5.385 24 12 24C18.615 24 24 18.615 24 12C24 5.385 18.615 0 12 0ZM3.75 10.5C3.75 10.0875 4.0875 9.75 4.5 9.75C6.93 9.75 7.53 8.0325 7.5375 8.01C7.6725 7.62 8.0925 7.41 8.49 7.5375C8.88 7.6725 9.09 8.0925 8.9625 8.49C8.925 8.6025 8.0025 11.25 4.5 11.25C4.0875 11.25 3.75 10.9125 3.75 10.5ZM5.175 14.475C4.845 14.2275 4.7775 13.755 5.025 13.425C5.2725 13.095 5.745 13.0275 6.075 13.275C7.8525 14.61 9.66 13.29 9.675 13.275C10.005 13.0275 10.4775 13.095 10.725 13.425C10.9725 13.755 10.905 14.2275 10.575 14.475C10.0275 14.8875 8.9925 15.3675 7.8 15.3675C6.9675 15.3675 6.0525 15.135 5.175 14.475ZM13.875 19.875H10.125C9.7125 19.875 9.375 19.5375 9.375 19.125C9.375 18.7125 9.7125 18.375 10.125 18.375H13.875C14.2875 18.375 14.625 18.7125 14.625 19.125C14.625 19.5375 14.2875 19.875 13.875 19.875ZM18.825 14.475C18.2775 14.8875 17.2425 15.3675 16.05 15.3675C15.2175 15.3675 14.3025 15.135 13.425 14.475C13.095 14.2275 13.0275 13.755 13.275 13.425C13.5225 13.095 13.995 13.0275 14.325 13.275C16.1025 14.61 17.9025 13.29 17.925 13.275C18.255 13.0275 18.7275 13.095 18.975 13.425C19.2225 13.755 19.155 14.2275 18.825 14.475ZM19.5 11.25C15.9975 11.25 15.075 8.6025 15.0375 8.49C14.91 8.0925 15.12 7.6725 15.51 7.5375C15.9075 7.41 16.3275 7.62 16.4625 8.01C16.4925 8.0925 17.1225 9.75 19.5 9.75C19.9125 9.75 20.25 10.0875 20.25 10.5C20.25 10.9125 19.9125 11.25 19.5 11.25Z" fill="black"/>
</svg>

<svg xmlns="http://www.w3.org/2000/svg" width="24" height="24" fill="none" viewBox="0 0 24 24"><path fill="currentColor" d="M12 0C5.385 0 0 5.385 0 12s5.385 12 12 12 12-5.385 12-12S18.615 0 12 0M3.75 10.5c0-.412.338-.75.75-.75 2.43 0 3.03-1.717 3.037-1.74a.76.76 0 0 1 .953-.473c.39.136.6.555.473.953-.038.112-.96 2.76-4.463 2.76a.75.75 0 0 1-.75-.75m1.425 3.975a.75.75 0 0 1-.15-1.05.75.75 0 0 1 1.05-.15c1.777 1.335 3.585.015 3.6 0a.75.75 0 0 1 1.05.15c.248.33.18.802-.15 1.05-.547.412-1.582.893-2.775.893a4.3 4.3 0 0 1-2.625-.893m8.7 5.4h-3.75a.75.75 0 0 1-.75-.75c0-.413.338-.75.75-.75h3.75c.412 0 .75.337.75.75s-.338.75-.75.75m4.95-5.4c-.547.412-1.582.893-2.775.893a4.3 4.3 0 0 1-2.625-.893.75.75 0 0 1-.15-1.05.75.75 0 0 1 1.05-.15c1.777 1.335 3.578.015 3.6 0a.75.75 0 0 1 1.05.15c.247.33.18.802-.15 1.05m.675-3.225c-3.502 0-4.425-2.648-4.462-2.76a.76.76 0 0 1 .472-.953.76.76 0 0 1 .952.473c.03.082.66 1.74 3.038 1.74.413 0 .75.338.75.75s-.337.75-.75.75"/></svg>
